!!!ONB: MCCC : ICD0085_03 : Extracted Monophonic Melody
!!!COM: Debussy, Claude
!!!OPR: Suite Bergamasque
!!!OMV: 3
!!!SCT: CD 82 ; L.75
!!!ODT: 1890///
**kern
*staff1
*IPiano
*clefG2
*k[b-e-a-d-g-]
*D-:
*M9/8
8aa-[
4.aa-]
4.ff[
=2
8ff]
8ee-
8ff
[2.ee-
=3
8ee-]
8dd-
8ee-
8.dd-
[8.ff
8.ff]
[8.dd-
=4
8dd-]
8cc
8dd-
2.cc[
=5
8cc]
8b-
8cc
8b-
8ee-
8b-
8a-
8b-
8a-[
=6
8a-]
8g-
8a-
4.g-
4.f
=7
8f
8f
8g-
8f
8b-
8f
8e-
8f
8e-[
=8
8e-]
8d-
8e-
4.d-
4.c
=9
4.r
8A-
4.aa-
4.ff[
=10
8ff]
8ee-
8ff
[2.ee-
=11
8ee-]
8dd-
8ee-
4.aa-
4.ff[
=12
8ff]
8ee-
8ff
4.ee-
[4.dd-
=13
8dd-]
8dd-
8ee-
8.bb-
8.aa-[
8.aa-]
8.ff[
=14
8ff]
8ee-
8ff
8.ee-
8.dd-[
8.dd-]
8.b-
=15
8.r
8.fff[
8fff]
8eee-
8eee-
8eee-
8ddd-
8ddd-
=16
8ddd-
8ccc
8ccc
8.ccc
8.ddd-
4.bb-
=17
8.r
8.fff[
8fff]
8ggg-
8fff
8eee-
8fff
8eee-
=18
8ddd-
8eee-
8ddd-
8.ccc
8.ddd-
4.bb-[
=19
8.bb-]
8.gg-
8.aa-
8.ccc
8.bb-
8.gg-
=20
8r
8gg-
8gg-
8gg-
8gg-
8aa-
4.gg-
=21
8.r
8.aa-
8.ddd-
8.bb-
8.gg-
=22
8r
8gg-
8gg-
8gg-
8gg-
8aa-
4.gg-
=23
8.r
8.gg-
8.aa-
8.eee-
8.ddd-
8.bb-
=24
8r
8bb-
8bb-
8bb-
8bb-
8ccc
8bb-
8ddd-
8eee-
=25
2.aaa-
4.aaa-
=26
2.aaa-
4.aa-
=27
2.a-
16A-
16d-
16A-
16c
16f
4cc-
16c-
8dd-
16a-
=28
2.a-
16A-
16d-
16A-
16c
16f
4cc-
16c-
16a-
16f-
=29
4dd-
8ee-
4.ff
4dd-
8ff
=30
8gg
8ff
8dd-
4.dd-
8.d-
8.B-
=31
2.b-
16c
16g-
16d-
16g-
4cc
8ff
=32
2.b-
16c
16g-
16d-
16g-
4cc
8ff
=33
[4.gg-
8.gg-]
16g-
16b-
16ff
16g-
16b-
16dd
16g-
16b-
16ee-
16g-
16b-
=34
2.bb-
16b-
16gg-
16bb-
16b-
16gg-
16bb-
4.aa-
16cc
16ee
16aa-
=35
2.aa-
16a-
16dd-
16a-
16cc
16ff
4ccc-
16cc-
8ddd-
16aa-
=36
2.aa-
16a-
16dd-
16a-
16cc
16ff
4bb
16b
16gg#
16ee
=37
*k[f#c#g#d#]
*E:
8.ccc#
16cc#
16gg#
16ee
8.eee
16ee
16ccc#
16gg#
8.ggg#
16gg#
16eee
16bb
=38
4.ggg#
16gg#
16ccc#
16aa
2.fff#
16ff#
16ccc#
16aa
16ff#
16ccc#
16aa
=39
2.fff#
16ff#
16ccc#
16aa
16ff#
16ccc#
16aa
4aaa
16cccc#
16ccc#
=40
2.ff#
16f#
16cc#
16a
16f#
16cc#
16a
4aa
8ccc#
16aa
=41
8eee
8ddd#
8ccc#
8.bb
8.aa[
8aa]
8gg#
8ff#
=42
8ee
8dd#
8cc#
8b
8a
8g#[
8g#]
8f#
8e
=43
*k[b-e-a-d-g-]
*D-:
2.e-
4g-
8b-
=44
2.e-
4g-
[8b-
=45
8b-]
8ff
8ee-
4.b-
4.a-
=46
8b-
8ff
8ee-
4.b-
4.a-
=47
16ee-
16e-
16g-
16b-
16g-
16e-
16r
16e-
16g-
16b-
16g-
16e-
4gg-
8bb-
16ee-
=48
16ee-
16e-
16g-
16b-
16g-
16e-
16r
16e-
16g-
16b-
16g-
16e-
4gg-
8bb-
16ee-
=49
2.eee-
16ee-
16gg-
16bb-
16ee-
16gg-
16ccc
4.eee-
16ee-
16gg-
16bb-
=50
4.eee-]
16ee-
16gg-
16aa
4.ddd-
16ee-
16gg-
16ccc-
4.eee-
16ee-
16gg-
16aa
=51
4r
8r
4.aaa-
4.fff[
=52
8fff]
8eee-
8fff
2.eee-[
=53
8eee-]
8ddd-
8eee-
8.ddd-
8.fff[
8.fff]
8.ddd-[
=54
8ddd-]
8ccc
8ddd-
2.ccc
=55
8r
8bb-
8ccc
8bb-
8eee-
8bb-
8aa-
8bb-
[8aa-
=56
8aa-]
8gg-
8aa-
4.gg-
4.ff[
=57
8ff]
8ff
8gg-
8ff
8bb-
8ff
8ee-
8ff
[8ee-
=58
8ee-]
8dd-
8ee-
4.dd-
4.cc
=59
4r
8A-
8r
4.aa-
[4.ff
=60
8ff]
8ee-
8ff
[2.ee-
=61
8ee-]
8dd-
8ee-
4.aa-
4.ff[
=62
8ff]
8ee-
8ff
4.ee-
4.dd-
=63
8r
8d-
8e-
4.b-
4.f
=64
8r
8g-
8a-
4.dd-
4.b-
=65
8r
8b-
8cc
4.ff
4.a-
=66
89r
16A-
16d-
16A-
16c
16f
16A-
16d-
=67
4r
16A-
16c
16f
4.cc-
4.dd-
=68
89r
16a-
16dd-
16a-
16cc
16ff
16a-
16dd-
=69
4r
16a-
16cc
16ff
4.ccc-
4.ddd-
=70
4.ccc-
4.ddd-
4.fff-
=71
2.aaa-[
4.aaa-]
=72
2.aaa-
4r
8r
==
*-
